X:11
T:Forked Deer
M:2/2
L:1/8
K:D
A2|"D"defg a2 f2|"G"gfge "A"fdec|"D"defg a2 f2|"A"gfed cB A2|
"D"defg a2 f2|"G"gebe "A"a2 fe|"D"dBAF "G"GBAG|1"A"FDEF "D"D2:|2"A"FDEF
"D"D4||
|:"A"A4 cABc|ABAG F2 E2|A4 cABc|ABcA "D"d4|
"A"A4 cABc|ABAG F2 E2|"D"D2 ED "G"FDGD|1"A"FDEF "D"D4:|2"A"FDEF "D"D2||
